X:7928
T:Vall\aat
C:F. A. Dahlgren
O:Sweden
Z:Transcribed by Frank Nordberg - http://www.musicaviva.com
F:http://abc.musicaviva.com/tunes/dahlgren-f-a/dahlgren-eg-gjeter.abc
M:3/8
L:1/8
K:C
G|GAF|GEG|cec|Hd2::G|G/A/B/c/d/e/|
feB|cAF|[1HG2:|[2GEG|c2d|c2|]
W:
W:
W:  From Musica Viva - http://www.musicaviva.com
W:  the Internet center for free sheet music downloads.

